X:1
T:The Ploughman
M:4/4
L:1/8
K:F
 D2| AB AG F2 FE| DE FD G2 FG| A2 AA AA cG| A6| FG| AB AG F2E-D| DE FD G2 FG|\
 A2 cAG-F DC| D3/2 E/2 FD G2|F-G| A2 cAG-F DC| D6||
